assets/v1/icons/binary.svg

<svg width="16" height="16" viewBox="0 0 16 16" fill="none" xmlns="http://www.w3.org/2000/svg">
<path fill-rule="evenodd" clip-rule="evenodd" d="M4.98 14.7919C3.484 14.7919 2.5 13.5359 2.5 11.9119V11.8959C2.5 10.2719 3.508 8.99994 4.996 8.99994C6.476 8.99994 7.476 10.2559 7.476 11.8799V11.8959C7.476 13.5199 6.476 14.7919 4.98 14.7919ZM5.00199 13.6799C5.74599 13.6799 6.21799 12.9279 6.21799 11.9119V11.8959C6.21799 10.8799 5.72199 10.1119 4.98599 10.1119C4.24999 10.1119 3.76999 10.8559 3.76999 11.8799V11.8959C3.76999 12.9199 4.25799 13.6799 5.00199 13.6799Z" fill="#AFB1B3"/>
<path fill-rule="evenodd" clip-rule="evenodd" d="M10.98 6.99195C9.484 6.99195 8.5 5.73595 8.5 4.11195V4.09595C8.5 2.47195 9.508 1.19995 10.996 1.19995C12.476 1.19995 13.476 2.45595 13.476 4.07995V4.09595C13.476 5.71995 12.476 6.99195 10.98 6.99195ZM11.002 5.87995C11.746 5.87995 12.218 5.12795 12.218 4.11195V4.09595C12.218 3.07995 11.722 2.31195 10.986 2.31195C10.25 2.31195 9.76999 3.05595 9.76999 4.07995V4.09595C9.76999 5.11995 10.258 5.87995 11.002 5.87995Z" fill="#AFB1B3"/>
<path fill-rule="evenodd" clip-rule="evenodd" d="M4.642 6.99133V2.59933L3.666 2.83933L3.41 1.83133L5.018 1.35133H5.858V6.99133H4.642Z" fill="#AFB1B3"/>
<path d="M3.41 6.09195H6.91V6.99195H3.41V6.09195Z" fill="#AFB1B3"/>
<path fill-rule="evenodd" clip-rule="evenodd" d="M10.642 14.6399V10.2479L9.666 10.4879L9.41 9.47995L11.018 8.99995H11.858V14.6399H10.642Z" fill="#AFB1B3"/>
<path d="M9.41 13.7406H12.91V14.6406H9.41V13.7406Z" fill="#AFB1B3"/>
</svg>

<svg xmlns="http://www.w3.org/2000/svg" width="16" height="16" fill="none" viewBox="0 0 16 16"><path fill="#AFB1B3" fill-rule="evenodd" d="M4.98 14.792c-1.496 0-2.48-1.256-2.48-2.88v-.016C2.5 10.272 3.508 9 4.996 9c1.48 0 2.48 1.256 2.48 2.88v.016c0 1.624-1 2.896-2.496 2.896m.022-1.112c.744 0 1.216-.752 1.216-1.768v-.016c0-1.016-.496-1.784-1.232-1.784s-1.216.744-1.216 1.768v.016c0 1.024.488 1.784 1.232 1.784m5.978-6.688c-1.496 0-2.48-1.256-2.48-2.88v-.016C8.5 2.472 9.508 1.2 10.996 1.2c1.48 0 2.48 1.256 2.48 2.88v.016c0 1.624-1 2.896-2.496 2.896m.022-1.112c.744 0 1.216-.752 1.216-1.768v-.016c0-1.016-.496-1.784-1.232-1.784S9.77 3.056 9.77 4.08v.016c0 1.024.488 1.784 1.232 1.784m-6.36 1.111V2.6l-.976.24-.256-1.008 1.608-.48h.84v5.64z" clip-rule="evenodd"/><path fill="#AFB1B3" d="M3.41 6.092h3.5v.9h-3.5z"/><path fill="#AFB1B3" fill-rule="evenodd" d="M10.642 14.64v-4.392l-.976.24L9.41 9.48 11.018 9h.84v5.64z" clip-rule="evenodd"/><path fill="#AFB1B3" d="M9.41 13.74h3.5v.9h-3.5z"/></svg>
